X:83
T:Idle Road (j)
B:NFID.100b ("untitled jig")
083idle
S:SD
L:1/8
M:6/8
R:jig
Q:320
K:G
E|DBB Dcc|DBB c2e|dBG FGA|BGB AFD|
DBB Dcc|DBB c2e|dBG FGA|BGG G2:|
G|GBd efg|fed cAF|G2G g2g|afd cAF|
DBB Dcc|DBB c2e|dBG FGA|BGG G2:|

%%%

